X: 1
T: the Shepherd's Bridge
C: Judith M Smith
R: strathspey
N: Original tune for the Scottish dance Rachel's Strathspey by Ann Dix (April 2000)
Z: 2014 John Chambers <jc:trillian.mit.edu>
M: C
L: 1/8
K: Em
EF |\
"Em"G<E E>G "D"F<D D>F | "Em"E>F G>c "G"BA Bd |\
"Bm"e<B B>A "Em"G<E E>G | "D"(3FGA d>A F<D D>F |\
"Em"G<E E>G "D"F<D D>F |
"Em"E>F "C"G>A "Bm7"BA Bd |\
"Em"e<B B>A "G"G>A B>c | "B7"B>A GF "Em"E2 "D7"EF ||\
"G"G<G DG "Am"A<A EA | "Bm"B<B FB "Am"cB "D"Ad |\
"G"G<G DG "Am"A<A EA |
"Em"B2 Bc "B7"(3BcB (3AGF |\
"Em"G<E E>G "D"F<D D>F | "Em"E>F G>A "G"BA Bd |\
"Bm"e<B B>A "Em"G<E E>G | "D"(3FGA (3AGF "Em"E2 :|
